dist/img/hero-secton-bullets-img/check-fill.svg

<svg width="24" height="24" viewBox="0 0 24 24" fill="none" xmlns="http://www.w3.org/2000/svg">
<path d="M0 12C0 5.37258 5.37258 0 12 0C18.6274 0 24 5.37258 24 12C24 18.6274 18.6274 24 12 24C5.37258 24 0 18.6274 0 12Z" fill="#EEF2FF"/>
<path d="M9.64715 15.5245L10.0007 15.878L10.3543 15.5245L19.1931 6.68562L19.9002 7.39272L10.0007 17.2922L4.34383 11.6354L5.05093 10.9283L9.64715 15.5245Z" fill="#6366F1" stroke="#6366F1"/>
</svg>

<svg width="24" height="24" fill="none" xmlns="http://www.w3.org/2000/svg"><path d="M0 12C0 5.373 5.373 0 12 0s12 5.373 12 12-5.373 12-12 12S0 18.627 0 12z" fill="#EEF2FF"/><path d="M9.647 15.524l.354.354.353-.354 8.84-8.838.706.707-9.9 9.9-5.656-5.658.707-.707 4.596 4.596z" fill="#6366F1" stroke="#6366F1"/></svg>
